dist/img/donate.svg

<svg width="64" height="64" viewBox="0 0 64 64" fill="none" xmlns="http://www.w3.org/2000/svg">
<path opacity="0.8" d="M35.002 42C34.09 40.784 32.637 39.998 31 39.998C28.239 39.998 26 42.237 26 44.998C26 47.759 28.239 49.998 31 49.998C31.711 49.998 32.388 49.849 33 49.582L30.002 44.998L35.002 42Z" fill="#216E7A"/>
<path d="M55 12.9999H51C49.346 12.9999 48 14.3429 48 15.9969V17.9999H37.209L19.627 10.3429C17.677 9.49493 15.327 10.2899 14.396 12.1209C13.942 13.0129 13.875 14.0179 14.209 14.9559C14.56 15.9399 15.301 16.7249 16.296 17.1619L18.198 17.9999H17H14H10C7.794 17.9999 6 19.7939 6 21.9999C6 24.2059 7.794 25.9999 10 25.9999H14H17H26.178C22.515 28.9999 20 32.3649 20 36.9989C20 39.4969 20.713 41.9129 22.057 44.0079C22.021 44.3329 22 44.6629 22 44.9979C22 49.9609 26.037 53.9979 31 53.9979C34.686 53.9979 37.962 51.7899 39.346 48.3729L39.306 48.3569C43.293 46.1329 46 41.8769 46 36.9969V34.9999H48.185C48.599 35.9999 49.699 36.9999 51 36.9999H55C56.654 36.9999 58 35.6519 58 33.9969V15.9969C58 14.3429 56.654 12.9999 55 12.9999ZM17.102 15.3319C16.616 15.1179 16.257 14.7449 16.093 14.2849C15.946 13.8709 15.976 13.4239 16.177 13.0289C16.64 12.1229 17.828 11.7429 18.828 12.1779L32.198 17.9999H23.163L17.102 15.3319ZM8 21.9999C8 20.8969 8.897 19.9999 10 19.9999H10.556C10.212 20.9999 10 21.2679 10 21.9999C10 22.7319 10.212 23.9999 10.556 23.9999H10C8.897 23.9999 8 23.1029 8 21.9999ZM31 51.9969C27.141 51.9969 24 48.8559 24 44.9969C24 41.1379 27.141 37.9969 31 37.9969C33.126 37.9969 35.123 38.9799 36.441 40.6079C35.543 41.4639 34.335 41.9969 33 41.9969C30.794 41.9969 29 43.7909 29 45.9969C29 48.2029 30.794 49.9969 33 49.9969C34.144 49.9969 35.248 49.8339 36.306 49.5549C35.001 51.0779 33.089 51.9969 31 51.9969ZM37.613 38.9199C35.925 37.0909 33.537 35.9969 31 35.9969C29.966 35.9969 28.976 36.1809 28.05 36.5039C28.302 33.9809 30.412 31.9969 33 31.9969C35.757 31.9969 38 34.2399 38 36.9969C38 37.6789 37.861 38.3279 37.613 38.9199ZM44 32.9999V34.9969V36.9969C44 43.0619 39.065 47.9969 33 47.9969C31.897 47.9969 31 47.0999 31 45.9969C31 44.8939 31.897 43.9969 33 43.9969C36.859 43.9969 40 40.8559 40 36.9969C40 33.1379 36.859 29.9969 33 29.9969C29.141 29.9969 26 33.1379 26 36.9969C26 37.1979 25.965 37.3949 25.906 37.5849C24.587 38.4939 23.528 39.7489 22.845 41.2139C22.293 39.8849 22 38.4579 22 36.9969C22 30.9319 27 25.9969 33 25.9969V23.9999C32.663 23.9999 17 23.9999 17 23.9999H14C12.897 23.9999 12 23.1029 12 21.9999C12 20.8969 12.897 19.9999 14 19.9999H17H48V32.9999H46H44ZM56 33.9969C56 34.5489 55.552 34.9999 55 34.9999H54V28.9999H52V34.9999H51C50.448 34.9999 50 34.5489 50 33.9969V15.9969C50 15.4459 50.448 14.9999 51 14.9999H55C55.552 14.9999 56 15.4459 56 15.9969V33.9969Z" fill="#216E7A"/>
</svg>

<svg width="64" height="64" fill="none" xmlns="http://www.w3.org/2000/svg"><path opacity=".8" d="M35.002 42A5 5 0 1033 49.582l-2.998-4.584 5-2.998z" fill="#216E7A"/><path d="M55 13h-4c-1.654 0-3 1.343-3 2.997V18H37.209l-17.582-7.657c-1.95-.848-4.3-.053-5.231 1.778a3.557 3.557 0 00-.187 2.835c.351.984 1.092 1.769 2.087 2.206l1.902.838H10c-2.206 0-4 1.794-4 4s1.794 4 4 4h16.178C22.515 29 20 32.365 20 36.999c0 2.498.713 4.914 2.057 7.009a8.983 8.983 0 00-.057.99c0 4.963 4.037 9 9 9a8.968 8.968 0 008.346-5.625l-.04-.016C43.293 46.133 46 41.877 46 36.997V35h2.185c.414 1 1.514 2 2.815 2h4c1.654 0 3-1.348 3-3.003v-18A3.001 3.001 0 0055 13zm-37.898 2.332c-.486-.214-.845-.587-1.009-1.047a1.581 1.581 0 01.084-1.256c.463-.906 1.651-1.286 2.651-.851L32.198 18h-9.035l-6.061-2.668zM8 22c0-1.103.897-2 2-2h.556c-.344 1-.556 1.268-.556 2s.212 2 .556 2H10c-1.103 0-2-.897-2-2zm23 29.997c-3.859 0-7-3.141-7-7 0-3.86 3.141-7 7-7 2.126 0 4.123.983 5.441 2.61A4.973 4.973 0 0133 41.998c-2.206 0-4 1.794-4 4s1.794 4 4 4c1.144 0 2.248-.163 3.306-.442A6.966 6.966 0 0131 51.997zm6.613-13.077c-1.688-1.83-4.076-2.923-6.613-2.923a8.934 8.934 0 00-2.95.507c.252-2.523 2.362-4.507 4.95-4.507 2.757 0 5 2.243 5 5 0 .682-.139 1.33-.387 1.923zM44 33v3.997c0 6.065-4.935 11-11 11-1.103 0-2-.897-2-2s.897-2 2-2c3.859 0 7-3.141 7-7 0-3.86-3.141-7-7-7s-7 3.14-7 7c0 .2-.035.398-.094.588a9.053 9.053 0 00-3.061 3.629A10.977 10.977 0 0122 36.997c0-6.065 5-11 11-11V24H14c-1.103 0-2-.897-2-2s.897-2 2-2h34v13h-4zm12 .997c0 .552-.448 1.003-1 1.003h-1v-6h-2v6h-1c-.552 0-1-.451-1-1.003v-18A.998.998 0 0151 15h4c.552 0 1 .446 1 .997v18z" fill="#216E7A"/></svg>
